assets/images/tgmob.svg

<svg width="11" height="9" viewBox="0 0 11 9" fill="none" xmlns="http://www.w3.org/2000/svg">
<path d="M4.17646 5.77685L4.00037 8.22412C4.25227 8.22412 4.36136 8.11716 4.49216 7.98876L5.67317 6.87339L8.12039 8.64438C8.56919 8.89158 8.88542 8.7614 9.00646 8.23638L10.6128 0.798256L10.6132 0.797786C10.7556 0.142169 10.3733 -0.114214 9.93604 0.0466385L0.494129 3.61888C-0.150271 3.86603 -0.140514 4.22102 0.384616 4.38187L2.79849 5.12384L8.40552 1.65678C8.66942 1.48413 8.90936 1.57966 8.71199 1.75236L4.17646 5.77685Z" fill="white"/>
</svg>

<svg xmlns="http://www.w3.org/2000/svg" width="11" height="9" fill="none"><path fill="#fff" d="M4.176 5.777 4 8.224c.252 0 .361-.107.492-.235l1.181-1.116L8.12 8.644c.45.248.765.117.886-.408L10.613.798c.143-.656-.24-.912-.677-.751L.494 3.619c-.644.247-.635.602-.11.763l2.414.742 5.608-3.467c.263-.173.503-.077.306.095z"/></svg>
